X: 2492
T: Ballydesmond, The
R: polka
M: 2/4
K: Dmixolydian
|:A>B AG|Ad dc|AA/B/ cE|EF GF/G/|
A>B AG|Ad d/e/d/c/|A>B cE|ED D2:|
|:ed c>d|ed cd|ed c>d|ea a/b/a/g/|
[1 ed c>d|ed cB|AB cd|1 ef g>f:|
[2 e/f/g dB|ce d>c|A>B cE|ED D2||

